src/lib/packages/icons/src/assets/filled/music-note.svg

<svg width="24" height="24" viewBox="0 0 24 24" fill="none" xmlns="http://www.w3.org/2000/svg">
<path d="M20.5 4.54001V7.04001C20.5 7.90701 19.9521 8.577 19.0341 8.832L13.595 10.352C12.952 10.539 12.5 11.217 12.5 12V17.5C12.5 19.706 10.706 21.5 8.5 21.5C6.294 21.5 4.5 19.706 4.5 17.5C4.5 15.294 6.294 13.5 8.5 13.5C9.7 13.5 10.766 14.042 11.5 14.882V6.33004C11.5 5.22304 12.2489 4.23189 13.3199 3.91989L17.955 2.61789C18.707 2.40589 19.3511 2.47789 19.8101 2.82589C20.2691 3.17289 20.5 3.75001 20.5 4.54001Z" fill="currentColor"/>
</svg>

<svg xmlns="http://www.w3.org/2000/svg" width="24" height="24" fill="none"><path fill="currentColor" d="M20.5 4.54v2.5c0 .867-.548 1.537-1.466 1.792l-5.439 1.52c-.643.187-1.095.865-1.095 1.648v5.5c0 2.206-1.794 4-4 4s-4-1.794-4-4 1.794-4 4-4c1.2 0 2.266.542 3 1.382V6.33a2.53 2.53 0 0 1 1.82-2.41l4.635-1.302c.752-.212 1.396-.14 1.855.208.46.347.69.924.69 1.714Z"/></svg>
